X: 1437
T: Johnny Has Gone To France
R: reel
B: O'Neill's 1850 #1437
N: McFadden
Z: Bob Safranek, rjs@gsp.org
M: C|
L: 1/8
K: G
|: g2(fg) dcAc | dBcA FGAF | dg ((3{a}gfg) dcA^c | dBcA [1 dBcA :|2 BGG2 |] dg ((3{a}gfg) gbag | fdcA FGAF |
| dg ((3{a}gfg) gbag | fdcA AGG2 || g2dg gbag | fdcA defg | ((3aba) ag fgag | fdcA AGG2 |]
